X:1
T:Cutting at the Broom
M:6/8
L:1/8
R:Jig
S:John Rook ms. (Waverly, Cumbria, 1842)
K:A
f|ecA ABc|d2c B2A|ecA AcA|B2c d2f|
ecA ABc|d2c B2A|BdB cec|A2A A2:|
|:f|ece fdf|ecA A2f|ece fga|B2c d2f|
ecA ABc|d2c B2A|BdB cec|A3 A2:||

